Sardi Mono Papirus Dark/16x16/actions/playlist-similar.svg

<?xml version="1.0" encoding="UTF-8" standalone="no"?>
<svg xmlns="http://www.w3.org/2000/svg" width="16" height="16" viewBox="0 0 16 16">
 <defs>
  <style type="text/css" id="current-color-scheme">
   .ColorScheme-Text { color:#d3dae3; }
  </style>
 </defs>
 <path style="fill:currentColor;opacity:1" class="ColorScheme-Text" d="M 1 1 L 1 3 L 15 3 L 15 1 L 1 1 z M 9 5 L 9 7 L 9 10 L 9 11 L 13 11 L 13 13 L 9 13 L 9 15 L 15 15 L 15 13 L 15 10 L 15 9 L 11 9 L 11 7 L 15 7 L 15 5 L 11 5 L 9 5 z M 1 5.0039062 L 1 7.0039062 L 7 7.0039062 L 7 5.0039062 L 1 5.0039062 z M 1 9.0039062 L 1 11.003906 L 7 11.003906 L 7 9.0039062 L 1 9.0039062 z M 1 13 L 1 15 L 7 15 L 7 13 L 1 13 z"/>
</svg>

<?xml version="1.0" encoding="UTF-8" standalone="no"?>
<!-- Created with Inkscape (http://www.inkscape.org/) -->

<svg
   xmlns:dc="http://purl.org/dc/elements/1.1/"
   xmlns:cc="http://creativecommons.org/ns#"
   xmlns:rdf="http://www.w3.org/1999/02/22-rdf-syntax-ns#"
   xmlns:svg="http://www.w3.org/2000/svg"
   xmlns="http://www.w3.org/2000/svg"
   xmlns:sodipodi="http://sodipodi.sourceforge.net/DTD/sodipodi-0.dtd"
   xmlns:inkscape="http://www.inkscape.org/namespaces/inkscape"
   id="svg7384"
   style="enable-background:new"
   height="16"
   width="16"
   version="1.1"
   inkscape:version="0.91 r13725"
   sodipodi:docname="playlist-similar.svg">
  <defs
     id="defs9" />
  <sodipodi:namedview
     pagecolor="#ffffff"
     bordercolor="#666666"
     borderopacity="1"
     objecttolerance="10"
     gridtolerance="10"
     guidetolerance="10"
     inkscape:pageopacity="0"
     inkscape:pageshadow="2"
     inkscape:window-width="1535"
     inkscape:window-height="876"
     id="namedview7"
     showgrid="false"
     inkscape:zoom="17.31"
     inkscape:cx="-20.064983"
     inkscape:cy="7.8397724"
     inkscape:window-x="65"
     inkscape:window-y="24"
     inkscape:window-maximized="1"
     inkscape:current-layer="svg7384" />
  <metadata
     id="metadata90">
    <rdf:RDF>
      <cc:Work
         rdf:about="">
        <dc:format>image/svg+xml</dc:format>
        <dc:type
           rdf:resource="http://purl.org/dc/dcmitype/StillImage" />
        <dc:title>Paper Symbolic Icon Theme</dc:title>
      </cc:Work>
    </rdf:RDF>
  </metadata>
  <title
     id="title8473">Paper Symbolic Icon Theme</title>
  <path
     inkscape:connector-curvature="0"
     style="opacity:0.72000002;fill:#ffffff;fill-opacity:1"
     d="M 1,1 1,3 15,3 15,1 1,1 Z m 8,4 0,2 0,3 0,1 4,0 0,2 -4,0 0,2 6,0 0,-2 0,-3 0,-1 -4,0 0,-2 4,0 0,-2 -4,0 -2,0 z m -8,0.00391 0,2 6,0 0,-2 -6,0 z m 0,4 0,2 6,0 0,-2 -6,0 z M 1,13 l 0,2 6,0 0,-2 -6,0 z"
     id="rect10753" />
</svg>
